X:1
T:Saved by Grace
T:George Coles Stebbins, 1894
T:Saved by Grace
T:Public Domain
T:Public Domain
T:Public Domain
C:George Coles Stebbins, 1894
Z:Public Domain
%%score ( 1 2 ) ( 3 4 )
L:1/8
M:3/4
K:F
V:1 treble 
V:2 treble 
V:3 bass 
V:4 bass 
V:1
 [FA][FA] [FB] | [FA]3 [EG] C[CG] | [CF]3 [CF] [CE][CF] | [FB]3 [FA] [FG]>D | [CG]3 [FA] [FA][FB] | %5
w: 1.~Some day the|sil- ver cord will|And I no more|as now shall sing;|oh, the joy when|
w: 2.~Some day my|earth- ly house will|I can- not tell|how soon ’twill be;|this I know— my|
w: 3.~Some day, when|fades the gold- en|Be- neath the ros-|y tint- ed west,|bless- èd Lord will|
w: 4.~Some day: till|then I’ll watch and|My lamp all trimmed|and burn- ing bright,|when my Sav- ior|
 [FA]3 [EG] C[CG] | [CF]3 [FA] [EG][_EA] | [Dc][FB] [FA]3 [EG] | [CF]3 ||"^Refrain" [FA][FA] [Ac] | %10
w: I shall wake With-|the pal- ace of|the King! * *|||
w: All in All Has|a place in heav’n|for me. * *|||
w: say, “Well done!” And|shall en- ter in-|to rest. And I|shall|see Him face|
w: opens the gate, My|to Him may take|its flight. * *|||
 [Ac]3 [Ad] [FA][Ac] | [Bc]3 [Ac] [Ac][GB] | [GB][Ac] [Be]3 [Bd] | [Ac]3 [FA] [FA][Ac] | %14
w: ||||
w: ||||
w: to face, And tell|the stor- y— Saved|by grace; And I|shall see Him face|
w: ||||
 [Ac]3 [Ad] [FA][Fc] | [Ec]3 [Ec] [_Ec][EF] | [DF][DB] (CF E)[CG] | [CF]6 |] %18
w: ||||
w: ||||
w: to face, And tell|the stor- y— Saved|by grace. * * * *||
w: ||||
V:2
 x3 | x4 C x | x6 | x11/2 D/ | x6 | x4 C x | x6 | x6 | x3 || x3 | x6 | x6 | x6 | x6 | x6 | x6 | %16
w: |break,||But||in|||||||||||
w: |fall.||But||now|||||||||||
w: |sun||My||I|||||||||||
w: |wait,||That||soul|||||||||||
 x2 A3 x | x6 |] %18
w: ||
w: ||
w: ||
w: ||
V:3
 [F,C][F,C] [F,D] | [F,C]3 [C,B,] [E,B,][C,B,] | [F,A,]3 [F,A,] [G,B,][F,A,] | %3
 [B,,D]3 [F,C] [G,=B,]>[F,B,] | [E,B,]3 [F,C] [F,C][F,D] | [F,C]3 [C,B,] [E,B,][C,B,] | %6
 [F,A,]3 [F,C] [C,B,][F,C] | [B,,D][B,,_D] [C,C]3 [C,B,] | [F,,F,A,]3 || [F,C][F,C] [F,F] | %10
 (F,C, F,)[F,F] [F,C][F,F] | (G,C, G,)[F,C] [C,C][C,C] | [C,C][C,C] [C,C]3 [C,E] | %13
 [F,F]3 [F,C] [F,C][F,F] | (F,C, F,)[F,F] [F,C][F,A,] | (G,C, G,)[G,B,] [F,A,][A,,C] | %16
 [B,,B,][B,,F,] (F,A, C)[C,B,] | [F,A,]6 |] %18
V:4
 x3 | x6 | x6 | x6 | x6 | x6 | x6 | x6 | x3 || x3 | F3 x3 | E3 x3 | x6 | x6 | F3 x3 | B,3 x3 | %16
 x2 C,3 x | x6 |] %18

